X:188
T:Jackson’s Morning Brush. RH.188
R:Jig
S:Rev.R.Harrison’s MS,c1815,Cumbria
O:England
A:Temple Sowerby,Cumbria
Z:vmp.Simon Wilson. Review PJH, 2008.
M:6/8
L:1/8
Q:3/8=120
K:D
D|DFE EFD|DFA AFA|BAB d2e|fee e2f|!
DFE EFD|DFA AFA|BAB d2e|fdd d2:|!
|:g|fed fad|fda fdB|AFA d2e|fee e2g|!
fed fad|fea fdB|AFA d2e|fdd d2:|!
|:g|fdf ece|dBd AFA|DFA d2e|fee e2g|!
fdf ece|dBd AFA|DFA d2e|fdd d2:|

